icons/blood_rh_n.svg

<svg width="48" height="48" viewBox="0 0 48 48" fill="none" xmlns="http://www.w3.org/2000/svg">
<path fill-rule="evenodd" clip-rule="evenodd" d="M20.3879 5.53462C22.3567 3.48846 25.6433 3.48846 27.6121 5.53462L28.1398 6.0831H33.3302C35.903 6.0831 38 8.1569 38 10.7289V15.5H36V10.7289C36 9.27385 34.8109 8.0831 33.3302 8.0831H27.7143C27.4424 8.0831 27.1822 7.97238 26.9937 7.77645L26.1709 6.92133C24.9889 5.69289 23.0111 5.69289 21.8291 6.92133L21.0063 7.77645C20.8178 7.97238 20.5576 8.0831 20.2857 8.0831H15C13.3369 8.0831 12 9.4207 12 11.0569V28.9709C13.3017 28.9498 14.5326 28.9875 15.7005 29.0306C15.8789 29.0371 16.0556 29.0438 16.2306 29.0505C17.5139 29.0991 18.711 29.1444 19.8818 29.1195C22.5089 29.0636 24.924 28.6537 27.4919 27.1387C30.6105 25.2987 33.2501 25.8513 35.0748 26.9132C35.4135 27.1103 35.7222 27.3234 36 27.5388V22.5H38V33.0262C38 35.7794 35.7552 38 33 38H30V40H25V44H23V40H18V38H15C12.2448 38 10 35.7793 10 33.0262V11.0569C10 8.30376 12.2448 6.0831 15 6.0831H19.8602L20.3879 5.53462ZM15 36C13.3369 36 12 34.6624 12 33.0262V30.9712C13.2549 30.9498 14.4539 30.9859 15.6267 31.0292C15.8025 31.0357 15.9779 31.0423 16.1531 31.049C17.4295 31.0974 18.6899 31.1453 19.9243 31.119C22.766 31.0586 25.551 30.6059 28.5081 28.8612C30.9145 27.4415 32.7749 27.8888 34.0689 28.6418C34.7407 29.0328 35.2727 29.5177 35.6392 29.9108C35.7913 30.0741 35.9122 30.2186 36 30.3295V33.0262C36 34.6624 34.6631 36 33 36H15Z" fill="black"/>
<path d="M26 15C26 14.4477 25.5523 14 25 14C24.4477 14 24 14.4477 24 15V23C24 23.5523 24.4477 24 25 24C25.5523 24 26 23.5523 26 23V20H29V23C29 23.5523 29.4477 24 30 24C30.5523 24 31 23.5523 31 23V15C31 14.4477 30.5523 14 30 14C29.4477 14 29 14.4477 29 15V18H26V15Z" fill="black"/>
<path fill-rule="evenodd" clip-rule="evenodd" d="M15 15C15 14.4477 15.4477 14 16 14H19.125C20.7726 14 22 15.4049 22 17C22 18.0964 21.4201 19.1029 20.5225 19.6252L21.9055 22.5756C22.1399 23.0756 21.9245 23.6711 21.4244 23.9055C20.9244 24.1399 20.3289 23.9245 20.0945 23.4244L18.4893 20H17V23C17 23.5523 16.5523 24 16 24C15.4477 24 15 23.5523 15 23V15ZM20 17C20 16.3859 19.5484 16 19.125 16H17V18H19.125C19.5484 18 20 17.6141 20 17Z" fill="black"/>
<path d="M33 18C32.4477 18 32 18.4477 32 19C32 19.5523 32.4477 20 33 20H37C37.5523 20 38 19.5523 38 19C38 18.4477 37.5523 18 37 18H33Z" fill="black"/>
</svg>

<svg
  xmlns="http://www.w3.org/2000/svg"
  width="24"
  height="24"
  viewBox="0 0 24 24"
  fill="none"
  stroke="currentColor"
  stroke-width="2"
  stroke-linecap="round"
  stroke-linejoin="round"
>
  <path
    fill-rule="evenodd"
    d="M20.388 5.535a5.02 5.02 0 0 1 7.224 0l.528.548h5.19c2.573 0 4.67 2.074 4.67 4.646V15.5h-2v-4.771a2.66 2.66 0 0 0-2.67-2.646h-5.616a1 1 0 0 1-.72-.307l-.823-.855a3.02 3.02 0 0 0-4.342 0l-.823.855a1 1 0 0 1-.72.307H15c-1.663 0-3 1.338-3 2.974V28.97a69 69 0 0 1 3.7.06l.53.02c1.284.048 2.481.093 3.652.069 2.627-.056 5.042-.466 7.61-1.981 3.118-1.84 5.758-1.288 7.583-.226.338.197.647.41.925.626V22.5h2v10.526C38 35.78 35.755 38 33 38h-3v2h-5v4h-2v-4h-5v-2h-3c-2.755 0-5-2.22-5-4.974v-21.97c0-2.752 2.245-4.973 5-4.973h4.86zM15 36c-1.663 0-3-1.338-3-2.974v-2.055a66 66 0 0 1 3.627.058l.526.02c1.277.048 2.537.096 3.771.07 2.842-.06 5.627-.513 8.584-2.258 2.407-1.42 4.267-.972 5.56-.22A7 7 0 0 1 36 30.33v2.696C36 34.662 34.663 36 33 36z"
    clip-rule="evenodd"
  />
  <path d="M26 15a1 1 0 1 0-2 0v8a1 1 0 1 0 2 0v-3h3v3a1 1 0 1 0 2 0v-8a1 1 0 1 0-2 0v3h-3z" />
  <path
    fill-rule="evenodd"
    d="M15 15a1 1 0 0 1 1-1h3.125C20.773 14 22 15.405 22 17c0 1.096-.58 2.103-1.477 2.625l1.383 2.95a1 1 0 0 1-1.811.85L18.489 20H17v3a1 1 0 1 1-2 0zm5 2c0-.614-.452-1-.875-1H17v2h2.125c.423 0 .875-.386.875-1"
    clip-rule="evenodd"
  />
  <path d="M33 18a1 1 0 1 0 0 2h4a1 1 0 1 0 0-2z" />
</svg>
